svg/24/display-project-check.svg

<svg width="24" height="24" viewBox="0 0 24 24" fill="currentColor" xmlns="http://www.w3.org/2000/svg"><path d="M9 3C7.89543 3 7 3.89543 7 5V5.75C7 6.16421 7.33579 6.5 7.75 6.5C8.16421 6.5 8.5 6.16421 8.5 5.75V5C8.5 4.72386 8.72386 4.5 9 4.5H20C20.2761 4.5 20.5 4.72386 20.5 5V11C20.5 11.2747 20.2785 11.4976 20.0044 11.5C20.5324 11.7207 21.0252 12.009 21.4718 12.3542C21.7997 11.998 22 11.5224 22 11V5C22 3.89543 21.1046 3 20 3H9Z"/><path d="M17 10V11.0189C16.4805 11.0585 15.9782 11.159 15.5 11.3135V10C15.5 9.72386 15.2761 9.5 15 9.5H4C3.72386 9.5 3.5 9.72386 3.5 10V16C3.5 16.2761 3.72386 16.5 4 16.5H11.0764C11.0261 16.826 11 17.1599 11 17.5C11 17.6682 11.0064 17.835 11.0189 18H4C2.89543 18 2 17.1046 2 16V10C2 8.89543 2.89543 8 4 8H15C16.1046 8 17 8.89543 17 10Z"/><path d="M11.25 19.5C11.2717 19.5 11.2932 19.5009 11.3144 19.5027C11.4509 19.9246 11.6293 20.3276 11.8448 20.7069C11.7077 20.8851 11.4923 21 11.25 21H7.75C7.33579 21 7 20.6642 7 20.25C7 19.8358 7.33579 19.5 7.75 19.5H11.25Z"/><path fill-rule="evenodd" clip-rule="evenodd" d="M17.5 23C20.5376 23 23 20.5376 23 17.5C23 14.4624 20.5376 12 17.5 12C14.4624 12 12 14.4624 12 17.5C12 20.5376 14.4624 23 17.5 23ZM16.8536 19.8536L20.3536 16.3536C20.5488 16.1583 20.5488 15.8417 20.3536 15.6464C20.1583 15.4512 19.8417 15.4512 19.6464 15.6464L16.5 18.7929L14.8536 17.1464C14.6583 16.9512 14.3417 16.9512 14.1464 17.1464C13.9512 17.3417 13.9512 17.6583 14.1464 17.8536L16.1464 19.8536C16.2402 19.9473 16.3674 20 16.5 20C16.6326 20 16.7598 19.9473 16.8536 19.8536Z"/></svg>

<svg xmlns="http://www.w3.org/2000/svg" width="24" height="24" fill="currentColor" viewBox="0 0 24 24">
  <path d="M9 3a2 2 0 0 0-2 2v.75a.75.75 0 0 0 1.5 0V5a.5.5 0 0 1 .5-.5h11a.5.5 0 0 1 .5.5v6a.5.5 0 0 1-.496.5 6.49 6.49 0 0 1 1.468.854C21.8 11.998 22 11.522 22 11V5a2 2 0 0 0-2-2H9Z"/>
  <path d="M17 10v1.019c-.52.04-1.022.14-1.5.294V10a.5.5 0 0 0-.5-.5H4a.5.5 0 0 0-.5.5v6a.5.5 0 0 0 .5.5h7.076a6.554 6.554 0 0 0-.057 1.5H4a2 2 0 0 1-2-2v-6a2 2 0 0 1 2-2h11a2 2 0 0 1 2 2Zm-5.75 9.5c.022 0 .043 0 .064.003.137.422.315.825.53 1.204a.749.749 0 0 1-.594.293h-3.5a.75.75 0 0 1 0-1.5h3.5Z"/>
  <path fill-rule="evenodd" d="M17.5 23a5.5 5.5 0 1 0 0-11 5.5 5.5 0 0 0 0 11Zm-.646-3.146 3.5-3.5a.5.5 0 0 0-.708-.708L16.5 18.793l-1.646-1.647a.5.5 0 0 0-.708.708l2 2a.5.5 0 0 0 .708 0Z" clip-rule="evenodd"/>
</svg>
